X: 2069
T: Âşık Oldum Yavrucağım Yüzüne
C: Ali Bey (Enderûnî)
O: Turkey
F: http://compmusic.upf.edu/node/140
N: hicaz--sarki--devrihindi--asik_oldum--enderuni_ali_bey
N: makam= hicaz
N: form= sarki
N: usul= devrihindi = 7/4
M: 7/4
L: 1/16
K: C _7/8B ^f ^c 
Q: 1/4=78
%%MIDI tuningsystem comma53
e3=f g4 g4 g2a4g2 f3e d4  | d3e =f4 f4 f2a2 g2f2 e2d2 =c4  | 
w:  ARANAĞME  |   | 
d4 e4 e2f2 g2a2 g2=f2 e2d2 c2B2  | \
w:   | 
A2B2 c2A2 B2G2 A3B c2d2 e2f2 g4  | 
w:   | 
e3=f g4 g4 g2a4g2 f3e d4  | d3e =f4 f4 f2a2 g2f2 e2d2 =c4  | 
w:  ARANAĞME  |   | 
d4 e4 e2f2 g2a2 g2=f2 e2d2 c2B2  | \
w:   | 
A2B2 c2A2 B2G2 A12 z4  | d8 e4 =fefg f2e2 e2f2 e2d2  | 
w:   |  Â şık  ol *  *  *  *  *  dum   | 
c8 d4 c2B2 B2A2 A6z2  | d3c =B4 c4 d2e2 d2e2 f3e d4  | \
w:  yav ru ca *  *  *  ğım   |  yü *  *  zü ne   | 
(3e2f2a2 g3f f3e e6d2 c2B2 A4  | 
w:  yü *  *  *  *  zü *  ne   SAZ  | 
d8 e4 =fefg f2e2 e2f2 e2d2  | c8 d4 c2B2 B2A2 A6z2  | \
w:  Â şık  ol *  *  *  *  *  dum   |  yav ru ca *  *  *  ğım   | 
d3c =B4 c4 d2e2 d2e2 f3e d4  | 
w:  yü *  *  zü ne   | 
(3e2f2a2 g3f f3e e6g2 f2^e2 f4  | \
w:  yü *  *  *  *  zü *  ne   SAZ  | 
f8 e2f2 g4 a2g2 =f3e d4  | 
w:  Hak  sak *  la *  *  sın   | 
g4 =f4 e2f2 e2d4e2 c2B2 A4  | c2d2 c2B2 B2A2 A2B2 c2d2 e2=fg fed2  | 
w:  göz  *  değ *  me *  *  sin   |  gö *  *  *  zü *  ne   | 
c2d2 c2B2 B2A2 A6g2 f2^e2 f4  | f8 e2f2 g4 a2g2 =f3e d4  | \
w:  gö *  *  *  zü *  ne   SAZ  |  Hak  sak *  la *  *  sın   | 
g4 =f4 e2f2 e2d4e2 c2B2 A4  | 
w:  göz  *  değ *  me *  *  sin   | 
c2d2 c2B2 B2A2 A2B2 c2d2 e2=fg fed2  | \
w:  gö *  *  *  zü *  ne   | 
c2d2 c2B2 B2A2 A6g2 f2g2 a4  | 
w:  gö *  *  *  zü *  ne   SAZ  | 
a8 a4 (3a2g2a2 =b2a2 a6z2  | f2g2 a2=b2 =c'4 c'2_1/4b4a2 _7/8b3a g4  | \
w:  Can  da yan *  *  *  *  maz   |  se *  *  *  nin  tat *  *  lı   | 
f2g2 a2b2 b4 b6a2 b3a g4  | 
w:  sö *  *  *  zü ne   | 
a2b2 c'2a2 b2g2 a6g2 f2g2 a4  | a8 a2=b2 a2g2 f2g2 a2b2 d'2=c'2  | 
w:  sö *  *  *  zü *  ne   SAZ  |  Bak  sî *  ne *  *  *  me   | 
=c'2=b2 b2a2 a2b2 a2g2 f2g2 e6d2  | \
w:  aş *  *  *  kın  *  i *  *  *  le   | 
c2d2 e2f2 g2a2 aga=b a2g2 f3e d4  | 
w:  ya *  *  *  nı *  yor   | 
aga=b a2f2 f2e2 e6g2 f2^e2 f4  | f8 e2f2 g4 a2g2 =f3e d4  | 
w:  ya *  *  *  *  *  nı *  yor   SAZ  |  Hak  sak *  la *  *  sın   | 
g4 =f4 e2f2 e2d4e2 c2B2 A4  | c2d2 c2B2 B2A2 A2B2 c2d2 e2=fg fed2  | 
w:  göz  *  değ *  me *  *  sin   |  gö *  *  *  zü *  ne   | 
c2d2 c2B2 B2A2 A12 z4  | |


